dist/images/icon/quesion.svg

<svg width="128" height="185" viewBox="0 0 128 185" fill="none" xmlns="http://www.w3.org/2000/svg">
<path d="M38.5753 126.025V121.812C38.5753 112.158 39.3352 104.465 40.8548 98.731C42.3744 92.9973 44.6247 88.4045 47.6055 84.9526C50.5863 81.4421 54.2393 78.2827 58.5644 75.4744C62.305 73.0171 65.6365 70.6475 68.5589 68.3657C71.5397 66.084 73.8776 63.6559 75.5726 61.0816C77.326 58.5073 78.2027 55.5819 78.2027 52.3055C78.2027 49.3801 77.5014 46.8058 76.0986 44.5825C74.6959 42.3593 72.7963 40.6333 70.4 39.4047C68.0036 38.176 65.3443 37.5617 62.4219 37.5617C59.2658 37.5617 56.3434 38.293 53.6548 39.7557C51.0247 41.2184 48.8913 43.2369 47.2548 45.8112C45.6767 48.3855 44.8877 51.3694 44.8877 54.7628H0C0.116895 41.8912 3.03927 31.4477 8.76712 23.4322C14.495 15.3582 22.0932 9.44893 31.5616 5.70446C41.0301 1.90149 51.4338 0 62.7726 0C75.2804 0 86.4438 1.84298 96.263 5.52894C106.082 9.15639 113.826 14.6561 119.496 22.028C125.165 29.3414 128 38.4978 128 49.4972C128 56.5765 126.773 62.8076 124.318 68.1902C121.921 73.5144 118.561 78.2242 114.236 82.3197C109.969 86.3567 104.972 90.0427 99.2438 93.3776C95.0356 95.8349 91.4995 98.38 88.6356 101.013C85.7717 103.587 83.6091 106.542 82.1479 109.877C80.6868 113.153 79.9562 117.132 79.9562 121.812V126.025H38.5753ZM59.9671 185C53.1872 185 47.3717 182.63 42.5205 177.891C37.7279 173.094 35.3607 167.272 35.4192 160.427C35.3607 153.757 37.7279 148.053 42.5205 143.314C47.3717 138.574 53.1872 136.205 59.9671 136.205C66.3963 136.205 72.0658 138.574 76.9753 143.314C81.9434 148.053 84.4566 153.757 84.5151 160.427C84.4566 164.991 83.2584 169.145 80.9205 172.889C78.6411 176.575 75.6603 179.53 71.9781 181.753C68.2959 183.918 64.2922 185 59.9671 185Z" fill="#F3F3F3"/>
</svg>

<svg width="128" height="185" fill="none" xmlns="http://www.w3.org/2000/svg"><path d="M38.575 126.025v-4.213c0-9.654.76-17.347 2.28-23.081 1.52-5.734 3.77-10.326 6.75-13.778 2.981-3.51 6.634-6.67 10.96-9.479 3.74-2.457 7.072-4.827 9.994-7.108 2.98-2.282 5.319-4.71 7.014-7.284 1.753-2.575 2.63-5.5 2.63-8.776 0-2.926-.702-5.5-2.104-7.723-1.403-2.224-3.303-3.95-5.699-5.178-2.396-1.229-5.056-1.843-7.978-1.843-3.156 0-6.079.731-8.767 2.194-2.63 1.462-4.764 3.48-6.4 6.055-1.578 2.575-2.367 5.558-2.367 8.952H0c.117-12.872 3.04-23.315 8.767-31.33 5.728-8.075 13.326-13.984 22.795-17.729C41.03 1.901 51.434 0 62.772 0 75.28 0 86.445 1.843 96.264 5.529c9.819 3.627 17.563 9.127 23.233 16.499 5.669 7.313 8.504 16.47 8.504 27.47 0 7.079-1.227 13.31-3.682 18.692-2.397 5.324-5.757 10.034-10.082 14.13-4.267 4.037-9.264 7.723-14.992 11.058-4.208 2.457-7.745 5.002-10.608 7.635-2.864 2.574-5.027 5.529-6.488 8.864-1.461 3.276-2.192 7.255-2.192 11.935v4.213h-41.38zM59.967 185c-6.78 0-12.595-2.37-17.447-7.109-4.792-4.797-7.16-10.619-7.1-17.464-.06-6.67 2.308-12.374 7.1-17.113 4.852-4.74 10.667-7.109 17.447-7.109 6.43 0 12.099 2.369 17.008 7.109 4.968 4.739 7.482 10.443 7.54 17.113-.058 4.564-1.257 8.718-3.594 12.462-2.28 3.686-5.26 6.641-8.943 8.864-3.682 2.165-7.686 3.247-12.01 3.247z" fill="#F3F3F3"/></svg>
